**kern	**kern	**dynam
*part1	*part1	*part1
*staff2	*staff1	*
*I"Piano	*	*
*clefF4	*clefG2	*
*k[f#]	*k[f#]	*
=1	=1	=1
*^	*	*
(8BBL]	4EE]	12GL 12B 12e	.
.	.	12G 12B 12e	.
8EJ	.	.	.
.	.	12GJ 12B 12e	.
8GL	4r	12GL 12B 12e	.
.	.	12G 12B 12e	.
8F#J)	.	.	.
.	.	12GJ 12B 12e	.
*v	*v	*	*
=	=	=
(4.E	12GL 12B 12e	<
.	12G 12B 12e	.
.	12GJ 12B 12e	.
.	12GL 12B 12e	.
.	12G 12B 12e	.
8BB	.	.
.	12GJ 12B 12e	.
=	=	=
8AAL	12F#L 12A 12c 12e	[ >
.	12F# 12A 12c 12e	.
8GGJ	.	.
.	12F#J 12A 12c 12e	.
8AAL	12F#L 12A 12c 12e	.
.	12F# 12A 12c 12e	.
8BBJ)	.	.
.	12F#J 12A 12c 12e	.
=	=	=
2EE	12GL 12B 12e	]
.	12G 12B 12e	.
.	12GJ 12B 12e	.
.	12GL 12B 12e	.
.	12G 12B 12e	.
.	12GJ 12B 12e	.
=	=	=
2EE	12GL 12B 12e	.
.	12G 12B 12e	.
.	12GJ 12B 12e	.
.	12GL 12B 12e	.
.	12G 12B 12e	.
.	12GJ 12B 12e	.
=	=	=
[2EE	[2G [2B [2e	.
=	=	=
2EE;]	2G;] 2B] 2e]	.
==	==	==
*-	*-	*-
!!!system-decoration: {(s1,s2)}
